X:36
T:Rond de Loudeac s1.2 Bal 39.2 Am
C:from Dave Shepard, p39#2, Brittany 
O:trans. Jim Oakden
G:Lark14
M:6/8
K:Am
Q:140
L:1/8
e|:e2d B2d|dcB A2e| e2dB2d|c3 A3:|
|:ABc B3| ABc B2e| e2d B2d|c3A3:|

